public/assets/standards/sci-ai/tabs-business-leaders.svg

<svg width="498" height="307" viewBox="0 0 498 307" fill="none" xmlns="http://www.w3.org/2000/svg">
<path d="M249.81 14.0499H2V178.91H249.81V14.0499Z" fill="#00524F" stroke="#A9C753" stroke-width="2.4" stroke-miterlimit="10"/>
<path d="M137.22 129.48C120.67 135.73 102.18 127.37 95.9299 110.82C94.4899 107.01 93.8299 103.09 93.8699 99.2399C85.5599 96.6099 76.9599 94.8999 68.2799 93.6099C67.3899 102.27 68.4299 111.26 71.7099 119.97C82.9099 149.64 115.85 164.74 145.58 154C145.84 153.91 146.89 153.51 146.89 153.51L137.74 129.28C137.74 129.28 137.4 129.42 137.22 129.49V129.48Z" fill="white" stroke="white" stroke-width="0.71" stroke-miterlimit="10"/>
<path d="M72.1 78.0299C72.1 78.0299 71.79 78.8099 71.65 79.1999C67.28 90.8699 66.63 103.98 70.57 116.65C70.91 117.76 71.71 119.97 71.71 119.97L95.93 110.83C93.13 103.41 93.26 95.5899 95.76 88.6699C95.88 88.3399 96.14 87.6799 96.14 87.6799L72.11 78.0399L72.1 78.0299Z" fill="#ADCB53" stroke="#ADCB53" stroke-width="0.71" stroke-miterlimit="10"/>
<path d="M137.22 129.48C120.67 135.73 102.18 127.37 95.93 110.82C89.68 94.2699 98.04 75.7799 114.59 69.5299C131.14 63.2799 149.63 71.6399 155.88 88.1899C162.13 104.74 153.77 123.23 137.22 129.48ZM146.36 153.71C116.55 164.96 83.26 149.92 72.01 120.11C60.76 90.2999 75.8 57.0099 105.61 45.7599C135.42 34.5099 168.71 49.5499 179.96 79.3599C191.21 109.17 176.17 142.46 146.36 153.71Z" stroke="#C8D3DD" stroke-width="1.42" stroke-miterlimit="10"/>
<path d="M144.65 -0.00012207H107.15V24.5699H144.65V-0.00012207Z" fill="#A9C753"/>
<path d="M20.72 152.74H68.28" stroke="#ADCB53" stroke-width="2.47" stroke-miterlimit="10"/>
<path d="M20.72 162.06H68.28" stroke="#ADCB53" stroke-width="2.47" stroke-miterlimit="10"/>
<path d="M68.28 152.74L96.13 134.78" stroke="#ADCB53" stroke-width="2.47" stroke-miterlimit="10"/>
<path d="M331.9 168.83C326.86 160.55 320.58 152.77 312.84 146.86C311.35 145.73 310.02 145.23 308.83 145.21C308.96 144.88 309.07 144.55 309.21 144.22C307.12 142.01 304.8 140.03 302.27 138.32C295.63 133.83 287.61 131.21 278.99 131.21H217.74C211.04 131.21 204.7 132.79 199.09 135.61C194.72 137.8 190.81 140.77 187.49 144.29C187.67 144.59 187.83 144.9 188 145.2C185.04 146.31 182.21 148.55 178.92 151.72C175.25 155.25 171.91 159.12 169.03 163.31C141.61 203.28 139.73 258.04 140.62 304.99L176.13 304.05V304.99H320.64L320.62 303.18L356.76 304.99C357.61 260.12 355.9 208.26 331.91 168.82L331.9 168.83Z" fill="#00524F"/>
<path d="M320.62 305L319.8 220.31C319.75 215.11 318.52 209.99 316.18 205.34C310.21 193.51 299.78 167.25 309.2 144.23C307.11 142.02 304.79 140.04 302.26 138.33C295.61 133.84 287.6 131.22 278.98 131.22H217.73C211.03 131.22 204.69 132.8 199.08 135.62C194.71 137.81 190.8 140.78 187.48 144.3C198.13 161.84 188.19 192.62 181.23 205.65C178.66 210.46 177.37 215.85 177.29 221.31L176.09 305.01" stroke="#007872" stroke-width="2.14" stroke-linecap="round" stroke-linejoin="round"/>
<path d="M188.15 144.23C143.65 174.21 139.71 257.48 140.61 305" stroke="#007872" stroke-width="2.14" stroke-miterlimit="10"/>
<path d="M309.2 144.23C353.7 174.21 357.64 257.48 356.74 305" stroke="#007872" stroke-width="2.14" stroke-miterlimit="10"/>
<path d="M243.68 109.5H255.54C261.72 109.5 266.74 114.52 266.74 120.7V131.71C266.74 141.17 259.06 148.84 249.61 148.84C240.15 148.84 232.48 141.16 232.48 131.71V120.7C232.48 114.52 237.5 109.5 243.68 109.5Z" fill="#808080"/>
<path d="M266.75 131.71C266.75 141.13 259.04 148.84 249.62 148.84C240.2 148.84 232.49 141.13 232.49 131.71" stroke="white" stroke-width="3.66" stroke-linecap="round" stroke-linejoin="round"/>
<g style="mix-blend-mode:multiply" opacity="0.5">
<path d="M241 94.9598H258.93C263.63 94.9598 267.45 98.7798 267.45 103.48V119.3C267.45 127.58 260.73 134.3 252.45 134.3H247.5C239.22 134.3 232.5 127.58 232.5 119.3V103.48C232.5 98.7798 236.32 94.9598 241.02 94.9598H241Z" fill="#808080"/>
</g>
<path d="M249.61 126.84C278.163 126.84 301.31 103.693 301.31 75.1398C301.31 46.5867 278.163 23.4398 249.61 23.4398C221.057 23.4398 197.91 46.5867 197.91 75.1398C197.91 103.693 221.057 126.84 249.61 126.84Z" fill="#808080"/>
<path d="M310.761 85.2294C315.361 78.2533 314.855 69.8057 309.631 66.3612C304.407 62.9166 296.444 65.7794 291.844 72.7555C287.244 79.7315 287.75 88.1791 292.974 91.6237C298.198 95.0682 306.161 92.2054 310.761 85.2294Z" fill="#808080"/>
<path d="M206.254 91.6542C211.478 88.2096 211.984 79.7621 207.384 72.786C202.784 65.81 194.82 62.9471 189.596 66.3917C184.372 69.8363 183.866 78.2839 188.466 85.2599C193.066 92.236 201.03 95.0988 206.254 91.6542Z" fill="#808080"/>
<path d="M300.65 83.6599C302.26 83.0299 303.58 81.7099 304.21 80.0999C304.6 79.0999 304.71 77.8799 304.06 77.0099C303.41 76.1399 301.85 76.0399 301.36 76.9999C301.54 75.1699 302.32 73.2299 303.4 71.7499C304.49 70.2699 306.37 69.2499 308.17 69.6299" stroke="#545454" stroke-width="1.62" stroke-linecap="round" stroke-linejoin="round"/>
<path d="M198.58 83.6599C196.97 83.0299 195.65 81.7099 195.02 80.0999C194.63 79.0999 194.52 77.8799 195.17 77.0099C195.82 76.1399 197.38 76.0399 197.87 76.9999C197.69 75.1699 196.91 73.2299 195.83 71.7499C194.74 70.2699 192.86 69.2499 191.06 69.6299" stroke="#545454" stroke-width="1.62" stroke-linecap="round" stroke-linejoin="round"/>
<path d="M215.43 32.5698C211.21 35.2898 207.89 38.9398 205.36 42.8498C201.15 49.3598 198.08 56.9998 198.74 64.9098C198.81 65.6798 199.05 66.6198 199.8 66.7998C201.65 63.6398 201.91 59.6698 203.54 56.3498C205.29 52.7998 207.56 49.4798 210.21 46.5298C212.87 43.5598 215.98 41.1498 219.34 39.6898L215.42 32.5798L215.43 32.5698Z" fill="white"/>
<path d="M294.83 28.7099C297.42 29.7099 300.12 29.9699 302.12 32.6499C302.82 33.5899 303.9 35.2899 304.09 36.4599C304.17 36.9699 304.19 39.6699 303.03 38.9199C302.4 38.5199 302.05 37.8099 301.5 37.3099C299.87 35.7999 299.37 37.5099 299.78 38.8999C300.81 42.3899 301.9 45.8599 302.24 49.4999C302.81 55.4999 303.14 61.6799 300.22 67.2499C300.08 67.5199 299.84 67.7399 299.55 67.8299C298.63 68.1099 298.15 67.0399 297.97 66.1999C296.26 58.2999 293.93 51.1299 286.91 46.5699C277.71 40.5999 266.15 40.6099 255.65 41.5999C244.51 42.6499 233.04 47.8499 221.74 45.8399C212.44 44.1899 203.6 38.9699 199.05 30.4699C197.88 28.2899 196.24 24.7699 196.91 22.1699C198.05 17.7799 202.13 22.4299 204.49 23.5599C206.6 24.5699 209.37 24.6599 211.6 24.0599C212.83 23.7299 213.99 23.2299 215.11 22.6399C216.25 22.0499 217.36 21.3699 218.46 20.6999C222.31 18.3499 226.71 14.8199 231.37 14.7299C229.83 14.7599 228.1 8.00988 228.76 6.89988C229.78 5.17988 231.7 7.17988 233.21 7.67988C235.45 8.42988 237.81 8.90988 240.13 9.38988C243.52 10.0799 246.08 9.64988 249.45 9.54988C255.55 9.36988 261.51 10.2899 267.49 11.3999C266.49 8.78988 268.06 5.44988 270.33 3.95988C270.51 3.83988 270.75 3.82988 270.93 3.95988C271.23 4.16988 271.08 4.59988 270.99 4.93988C270.69 5.99988 271.2 7.09988 271.73 8.06988C273.64 11.5699 277.6 17.6299 281.62 18.8199C282.44 15.5599 284.28 12.6699 287.72 11.6199C287.97 11.5499 288.24 11.5899 288.43 11.7599C288.81 12.0999 288.57 12.5699 288.37 12.9499C287.52 14.5699 287.4 16.4999 287.68 18.3099C288.27 22.0599 289.31 25.1299 292.41 27.4199C293.19 27.9999 294.02 28.3999 294.85 28.7199L294.83 28.7099Z" fill="white"/>
<path d="M234.38 74.2798C236.468 74.2798 238.16 72.5875 238.16 70.4998C238.16 68.4122 236.468 66.7198 234.38 66.7198C232.292 66.7198 230.6 68.4122 230.6 70.4998C230.6 72.5875 232.292 74.2798 234.38 74.2798Z" fill="black"/>
<path d="M282.27 74.2798C284.358 74.2798 286.05 72.5875 286.05 70.4998C286.05 68.4122 284.358 66.7198 282.27 66.7198C280.182 66.7198 278.49 68.4122 278.49 70.4998C278.49 72.5875 280.182 74.2798 282.27 74.2798Z" fill="black"/>
<path d="M228.82 7.86987C229.25 11.4799 230.8 15.6899 233.93 17.7799C236.26 19.3399 239.07 20.0199 241.83 20.5499" stroke="#003834" stroke-width="1.09" stroke-linecap="round" stroke-linejoin="round"/>
<path d="M288.23 11.2699C283.69 12.0999 281.01 19.1399 282.12 23.1399" stroke="#003834" stroke-width="1.09" stroke-linecap="round" stroke-linejoin="round"/>
<path d="M270.01 4.2699C268.27 5.7399 267.42 8.0999 267.45 10.3799C267.48 12.6599 268.3 14.8699 269.45 16.8399" stroke="#003834" stroke-width="1.09" stroke-linecap="round" stroke-linejoin="round"/>
<path d="M210.64 28.5699C215.63 28.0399 218.78 25.7199 222.65 22.9799C226.47 20.2699 231.98 19.1899 236.57 19.3899" stroke="#003834" stroke-width="1.09" stroke-linecap="round" stroke-linejoin="round"/>
<path d="M199.46 23.1699C200.82 26.0099 203.73 28.0399 206.87 28.3399" stroke="#003834" stroke-width="1.09" stroke-linecap="round" stroke-linejoin="round"/>
<path d="M247.23 21.8899C255.41 22.9499 262.34 23.8699 269.42 28.5299" stroke="#003834" stroke-width="1.09" stroke-linecap="round" stroke-linejoin="round"/>
<path d="M214.06 62.0399L239.16 62.3299" stroke="white" stroke-width="4.1" stroke-miterlimit="10"/>
<path d="M261.01 62.3299L286.11 62.0399" stroke="white" stroke-width="4.1" stroke-miterlimit="10"/>
<path d="M267.21 95.9999C266.86 96.1199 266.53 96.1999 266.44 96.2199C265.71 96.3099 264.85 96.1699 264.29 95.6599C262.94 94.4299 262.36 92.4099 261.06 91.0899C260.31 90.3299 259.48 89.6699 258.58 89.1099C256.71 87.7399 254.4 87.0999 252.08 87.0999H247.15C244.83 87.0999 242.53 87.7499 240.65 89.1099C239.75 89.6699 238.92 90.3299 238.17 91.0899C236.87 92.4099 236.29 94.4299 234.94 95.6599C234.38 96.1599 233.52 96.3099 232.79 96.2199C232.69 96.2099 232.37 96.1299 232.02 95.9999C231.35 95.7699 230.66 96.3099 230.74 97.0199C230.96 99.0099 232.35 101.04 233.81 102.11C233.95 102.21 234.09 102.3 234.25 102.39C235.58 103.14 237.5 103.46 238.93 103.61C241.03 103.84 248.39 100.17 249.96 100.17C251.3 100.17 258.2 103.83 260.29 103.61C261.72 103.46 263.64 103.14 264.97 102.39C265.13 102.3 265.27 102.21 265.41 102.11C266.87 101.04 268.26 99.0099 268.48 97.0199C268.56 96.3099 267.87 95.7699 267.2 95.9999H267.21Z" fill="white"/>
<path d="M201.62 93.6899C206.48 103.64 210.97 109.51 217.45 115.19C222.84 119.91 229.75 123.59 236.6 125.74C240.63 127 247.79 127.97 251.82 126.23C256.2 124.34 257.45 117.33 252.6 115.68C250.14 114.84 243.6 115.42 244.61 119.6" stroke="#545454" stroke-width="1.06" stroke-linecap="round" stroke-linejoin="round"/>
<path d="M4.40002 305H494.83" stroke="#C3C3C3" stroke-width="2.2" stroke-linecap="round" stroke-linejoin="round"/>
<path d="M123 277.49H26.7001" stroke="white" stroke-width="2.22" stroke-linecap="round" stroke-linejoin="round"/>
<path d="M123 290.41H26.7001" stroke="white" stroke-width="2.22" stroke-linecap="round" stroke-linejoin="round"/>
<path d="M123 264.91H26.7001" stroke="white" stroke-width="2.22" stroke-linecap="round" stroke-linejoin="round"/>
<path d="M123 252.34H26.7001" stroke="white" stroke-width="2.22" stroke-linecap="round" stroke-linejoin="round"/>
<path d="M33.3701 252.34L46.7901 267.68L72.7801 252.34H33.3701Z" fill="white" stroke="white" stroke-width="2.22" stroke-linejoin="round"/>
<path d="M355.36 223.15C355.36 250.51 333.18 272.7 305.81 272.7C278.44 272.7 256.26 250.52 256.26 223.15H355.36Z" fill="#00524F" stroke="white" stroke-width="2.22" stroke-linecap="round" stroke-linejoin="round"/>
<path d="M496.82 223.15C496.82 250.51 474.64 272.7 447.27 272.7C419.9 272.7 397.72 250.52 397.72 223.15H496.82Z" fill="#00524F" stroke="white" stroke-width="2.22" stroke-linecap="round" stroke-linejoin="round"/>
<path d="M389.51 267.03H362.99V303.82H389.51V267.03Z" fill="#A9C753"/>
<path d="M305.03 272.7H447.47" stroke="#ADCB53" stroke-width="2.62" stroke-linecap="round" stroke-linejoin="round"/>
<path d="M305.52 282.54C300.08 282.54 295.68 278.13 295.68 272.7C295.68 267.27 300.09 262.86 305.52 262.86C310.95 262.86 315.36 267.27 315.36 272.7C315.36 278.13 310.95 282.54 305.52 282.54Z" fill="#ADCB53"/>
<path d="M446.98 282.54C452.415 282.54 456.82 278.134 456.82 272.7C456.82 267.265 452.415 262.86 446.98 262.86C441.546 262.86 437.14 267.265 437.14 272.7C437.14 278.134 441.546 282.54 446.98 282.54Z" fill="#ADCB53"/>
<path d="M344.3 167.33H267.33V211.84H344.3V167.33Z" fill="#ADCB53" stroke="#ADCB53" stroke-width="1.79" stroke-linecap="round" stroke-linejoin="round"/>
<path d="M304.45 202.16V199.18C302.51 199.12 300.58 198.57 299.47 197.83L300.3 194.94C301.5 195.65 303.22 196.29 305.1 196.29C306.98 196.29 308.36 195.34 308.36 193.86C308.36 192.48 307.28 191.59 305.01 190.75C301.78 189.58 299.69 188.11 299.69 185.25C299.69 182.61 301.54 180.58 304.64 180.02V177.01H307.16V179.87C309.1 179.93 310.42 180.39 311.4 180.89L310.57 183.72C309.83 183.38 308.48 182.67 306.39 182.67C304.3 182.67 303.47 183.78 303.47 184.82C303.47 186.08 304.58 186.79 307.19 187.83C310.63 189.12 312.17 190.78 312.17 193.52C312.17 196.26 310.36 198.44 306.97 198.99V202.16H304.45Z" fill="white"/>
<path d="M305.81 206.24C315.011 206.24 322.47 198.781 322.47 189.58C322.47 180.379 315.011 172.92 305.81 172.92C296.609 172.92 289.15 180.379 289.15 189.58C289.15 198.781 296.609 206.24 305.81 206.24Z" stroke="white" stroke-width="1.75" stroke-miterlimit="10"/>
<path d="M494.86 132.69L402.47 132.99V211.36H494.86V132.69Z" stroke="#ADCB53" stroke-width="1.79" stroke-linecap="round" stroke-linejoin="round"/>
<path d="M494.86 125.63H402.47V135.55H494.86V125.63Z" fill="#A8C653" stroke="#A8C653" stroke-width="1.96" stroke-miterlimit="10"/>
<path d="M437.9 165.72C437.9 171.67 442.72 176.49 448.67 176.49C454.62 176.49 459.44 171.67 459.44 165.72C459.44 161.71 454.54 152.84 451.35 147.51C450.14 145.49 447.21 145.49 446.01 147.51C442.82 152.85 437.92 161.71 437.92 165.72H437.9Z" stroke="#ADCB53" stroke-width="1.79" stroke-linecap="round" stroke-linejoin="round"/>
<path d="M448.66 160.08V182.02" stroke="#ADCB53" stroke-width="1.79" stroke-linecap="round" stroke-linejoin="round"/>
<path d="M445.98 160.22C445.98 158.74 447.18 157.53 448.67 157.53C450.16 157.53 451.36 158.73 451.36 160.22C451.36 161.71 450.16 162.91 448.67 162.91C447.18 162.91 445.98 161.71 445.98 160.22Z" fill="#ADCB53"/>
<path d="M430.13 159.93L419.89 167.48L430.13 175.03" stroke="#ADCB53" stroke-width="1.79" stroke-linecap="round" stroke-linejoin="round"/>
<path d="M467.2 159.93L477.44 167.48L467.2 175.03" stroke="#ADCB53" stroke-width="1.79" stroke-linecap="round" stroke-linejoin="round"/>
<path d="M464.93 194.92H477.12" stroke="#ADCB53" stroke-width="1.79" stroke-linecap="round" stroke-linejoin="round"/>
<path d="M436.76 194.92H459.09" stroke="#ADCB53" stroke-width="1.79" stroke-linecap="round" stroke-linejoin="round"/>
<path d="M420.21 194.92H430.11" stroke="#ADCB53" stroke-width="1.79" stroke-linecap="round" stroke-linejoin="round"/>
</svg>

<svg xmlns="http://www.w3.org/2000/svg" width="498" height="307" fill="none" viewBox="0 0 498 307"><path fill="#00524f" stroke="#a9c753" stroke-miterlimit="10" stroke-width="2.4" d="M249.81 14.05H2v164.86h247.81z"/><path fill="#fff" stroke="#fff" stroke-miterlimit="10" stroke-width=".71" d="M137.22 129.48c-16.55 6.25-35.04-2.11-41.29-18.66-1.44-3.81-2.1-7.73-2.06-11.58-8.31-2.63-16.91-4.34-25.59-5.63-.89 8.66.15 17.65 3.43 26.36 11.2 29.67 44.14 44.77 73.87 34.03.26-.09 1.31-.49 1.31-.49l-9.15-24.23s-.34.14-.52.21z"/><path fill="#adcb53" stroke="#adcb53" stroke-miterlimit="10" stroke-width=".71" d="M72.1 78.03s-.31.78-.45 1.17c-4.37 11.67-5.02 24.78-1.08 37.45.34 1.11 1.14 3.32 1.14 3.32l24.22-9.14a31.9 31.9 0 0 1-.17-22.16c.12-.33.38-.99.38-.99l-24.03-9.64z"/><path stroke="#c8d3dd" stroke-miterlimit="10" stroke-width="1.42" d="M137.22 129.48c-16.55 6.25-35.04-2.11-41.29-18.66s2.11-35.04 18.66-41.29 35.04 2.11 41.29 18.66-2.11 35.04-18.66 41.29Zm9.14 24.23c-29.81 11.25-63.1-3.79-74.35-33.6s3.79-63.1 33.6-74.35 63.1 3.79 74.35 33.6-3.79 63.1-33.6 74.35Z"/><path fill="#a9c753" d="M144.65 0h-37.5v24.57h37.5z"/><path stroke="#adcb53" stroke-miterlimit="10" stroke-width="2.47" d="M20.72 152.74h47.56m-47.56 9.32h47.56m0-9.32 27.85-17.96"/><path fill="#00524f" d="M331.9 168.83c-5.04-8.28-11.32-16.06-19.06-21.97-1.49-1.13-2.82-1.63-4.01-1.65.13-.33.24-.66.38-.99a41.7 41.7 0 0 0-6.94-5.9c-6.64-4.49-14.66-7.11-23.28-7.11h-61.25c-6.7 0-13.04 1.58-18.65 4.4-4.37 2.19-8.28 5.16-11.6 8.68.18.3.34.61.51.91-2.96 1.11-5.79 3.35-9.08 6.52-3.67 3.53-7.01 7.4-9.89 11.59-27.42 39.97-29.3 94.73-28.41 141.68l35.51-.94v.94h144.51l-.02-1.81 36.14 1.81c.85-44.87-.86-96.73-24.85-136.17z"/><path stroke="#007872" stroke-linecap="round" stroke-linejoin="round" stroke-width="2.14" d="m320.62 305-.82-84.69c-.05-5.2-1.28-10.32-3.62-14.97-5.97-11.83-16.4-38.09-6.98-61.11a41.7 41.7 0 0 0-6.94-5.9 41.46 41.46 0 0 0-23.28-7.11h-61.25c-6.7 0-13.04 1.58-18.65 4.4-4.37 2.19-8.28 5.16-11.6 8.68 10.65 17.54.71 48.32-6.25 61.35-2.57 4.81-3.86 10.2-3.94 15.66l-1.2 83.7"/><path stroke="#007872" stroke-miterlimit="10" stroke-width="2.14" d="M188.15 144.23c-44.5 29.98-48.44 113.25-47.54 160.77M309.2 144.23c44.5 29.98 48.44 113.25 47.54 160.77"/><path fill="gray" d="M243.68 109.5h11.86c6.18 0 11.2 5.02 11.2 11.2v11.01c0 9.46-7.68 17.13-17.13 17.13-9.46 0-17.13-7.68-17.13-17.13V120.7c0-6.18 5.02-11.2 11.2-11.2"/><path stroke="#fff" stroke-linecap="round" stroke-linejoin="round" stroke-width="3.66" d="M266.75 131.71c0 9.42-7.71 17.13-17.13 17.13s-17.13-7.71-17.13-17.13"/><path fill="gray" d="M241 94.96h17.93c4.7 0 8.52 3.82 8.52 8.52v15.82c0 8.28-6.72 15-15 15h-4.95c-8.28 0-15-6.72-15-15v-15.82c0-4.7 3.82-8.52 8.52-8.52z" opacity=".5" style="mix-blend-mode:multiply"/><path fill="gray" d="M249.61 126.84c28.553 0 51.7-23.147 51.7-51.7s-23.147-51.7-51.7-51.7-51.7 23.147-51.7 51.7 23.147 51.7 51.7 51.7"/><path fill="gray" d="M310.761 85.23c4.6-6.977 4.094-15.424-1.13-18.869-5.224-3.444-13.187-.582-17.787 6.394-4.6 6.977-4.094 15.424 1.13 18.869 5.224 3.444 13.187.581 17.787-6.395m-104.507 6.425c5.224-3.444 5.73-11.892 1.13-18.868s-12.564-9.839-17.788-6.394c-5.224 3.444-5.73 11.892-1.13 18.868s12.564 9.839 17.788 6.394"/><path stroke="#545454" stroke-linecap="round" stroke-linejoin="round" stroke-width="1.62" d="M300.65 83.66a6.36 6.36 0 0 0 3.56-3.56c.39-1 .5-2.22-.15-3.09s-2.21-.97-2.7-.01c.18-1.83.96-3.77 2.04-5.25 1.09-1.48 2.97-2.5 4.77-2.12M198.58 83.66a6.36 6.36 0 0 1-3.56-3.56c-.39-1-.5-2.22.15-3.09s2.21-.97 2.7-.01c-.18-1.83-.96-3.77-2.04-5.25-1.09-1.48-2.97-2.5-4.77-2.12"/><path fill="#fff" d="M215.43 32.57c-4.22 2.72-7.54 6.37-10.07 10.28-4.21 6.51-7.28 14.15-6.62 22.06.07.77.31 1.71 1.06 1.89 1.85-3.16 2.11-7.13 3.74-10.45 1.75-3.55 4.02-6.87 6.67-9.82 2.66-2.97 5.77-5.38 9.13-6.84l-3.92-7.11z"/><path fill="#fff" d="M294.83 28.71c2.59 1 5.29 1.26 7.29 3.94.7.94 1.78 2.64 1.97 3.81.08.51.1 3.21-1.06 2.46-.63-.4-.98-1.11-1.53-1.61-1.63-1.51-2.13.2-1.72 1.59 1.03 3.49 2.12 6.96 2.46 10.6.57 6 .9 12.18-2.02 17.75-.14.27-.38.49-.67.58-.92.28-1.4-.79-1.58-1.63-1.71-7.9-4.04-15.07-11.06-19.63-9.2-5.97-20.76-5.96-31.26-4.97-11.14 1.05-22.61 6.25-33.91 4.24-9.3-1.65-18.14-6.87-22.69-15.37-1.17-2.18-2.81-5.7-2.14-8.3 1.14-4.39 5.22.26 7.58 1.39 2.11 1.01 4.88 1.1 7.11.5 1.23-.33 2.39-.83 3.51-1.42 1.14-.59 2.25-1.27 3.35-1.94 3.85-2.35 8.25-5.88 12.91-5.97-1.54.03-3.27-6.72-2.61-7.83 1.02-1.72 2.94.28 4.45.78 2.24.75 4.6 1.23 6.92 1.71 3.39.69 5.95.26 9.32.16 6.1-.18 12.06.74 18.04 1.85-1-2.61.57-5.95 2.84-7.44.18-.12.42-.13.6 0 .3.21.15.64.06.98-.3 1.06.21 2.16.74 3.13 1.91 3.5 5.87 9.56 9.89 10.75.82-3.26 2.66-6.15 6.1-7.2.25-.07.52-.03.71.14.38.34.14.81-.06 1.19-.85 1.62-.97 3.55-.69 5.36.59 3.75 1.63 6.82 4.73 9.11.78.58 1.61.98 2.44 1.3z"/><path fill="#000" d="M234.38 74.28a3.78 3.78 0 1 0 0-7.56 3.78 3.78 0 0 0 0 7.56m47.89 0a3.78 3.78 0 1 0 0-7.56 3.78 3.78 0 0 0 0 7.56"/><path stroke="#003834" stroke-linecap="round" stroke-linejoin="round" stroke-width="1.09" d="M228.82 7.87c.43 3.61 1.98 7.82 5.11 9.91 2.33 1.56 5.14 2.24 7.9 2.77m46.4-9.28c-4.54.83-7.22 7.87-6.11 11.87M270.01 4.27c-1.74 1.47-2.59 3.83-2.56 6.11s.85 4.49 2 6.46m-58.81 11.73c4.99-.53 8.14-2.85 12.01-5.59 3.82-2.71 9.33-3.79 13.92-3.59m-37.11 3.78c1.36 2.84 4.27 4.87 7.41 5.17m40.36-6.45c8.18 1.06 15.11 1.98 22.19 6.64"/><path stroke="#fff" stroke-miterlimit="10" stroke-width="4.1" d="m214.06 62.04 25.1.29m21.85 0 25.1-.29"/><path fill="#fff" d="M267.21 96c-.35.12-.68.2-.77.22-.73.09-1.59-.05-2.15-.56-1.35-1.23-1.93-3.25-3.23-4.57a13.5 13.5 0 0 0-2.48-1.98c-1.87-1.37-4.18-2.01-6.5-2.01h-4.93c-2.32 0-4.62.65-6.5 2.01-.9.56-1.73 1.22-2.48 1.98-1.3 1.32-1.88 3.34-3.23 4.57-.56.5-1.42.65-2.15.56-.1-.01-.42-.09-.77-.22a.968.968 0 0 0-1.28 1.02c.22 1.99 1.61 4.02 3.07 5.09.14.1.28.19.44.28 1.33.75 3.25 1.07 4.68 1.22 2.1.23 9.46-3.44 11.03-3.44 1.34 0 8.24 3.66 10.33 3.44 1.43-.15 3.35-.47 4.68-1.22.16-.09.3-.18.44-.28 1.46-1.07 2.85-3.1 3.07-5.09A.968.968 0 0 0 267.2 96z"/><path stroke="#545454" stroke-linecap="round" stroke-linejoin="round" stroke-width="1.06" d="M201.62 93.69c4.86 9.95 9.35 15.82 15.83 21.5 5.39 4.72 12.3 8.4 19.15 10.55 4.03 1.26 11.19 2.23 15.22.49 4.38-1.89 5.63-8.9.78-10.55-2.46-.84-9-.26-7.99 3.92"/><path stroke="#c3c3c3" stroke-linecap="round" stroke-linejoin="round" stroke-width="2.2" d="M4.4 305h490.43"/><path stroke="#fff" stroke-linecap="round" stroke-linejoin="round" stroke-width="2.22" d="M123 277.49H26.7m96.3 12.92H26.7m96.3-25.5H26.7m96.3-12.57H26.7"/><path fill="#fff" stroke="#fff" stroke-linejoin="round" stroke-width="2.22" d="m33.37 252.34 13.42 15.34 25.99-15.34z"/><path fill="#00524f" stroke="#fff" stroke-linecap="round" stroke-linejoin="round" stroke-width="2.22" d="M355.36 223.15c0 27.36-22.18 49.55-49.55 49.55s-49.55-22.18-49.55-49.55zm141.46 0c0 27.36-22.18 49.55-49.55 49.55s-49.55-22.18-49.55-49.55z"/><path fill="#a9c753" d="M389.51 267.03h-26.52v36.79h26.52z"/><path stroke="#adcb53" stroke-linecap="round" stroke-linejoin="round" stroke-width="2.62" d="M305.03 272.7h142.44"/><path fill="#adcb53" d="M305.52 282.54c-5.44 0-9.84-4.41-9.84-9.84s4.41-9.84 9.84-9.84 9.84 4.41 9.84 9.84-4.41 9.84-9.84 9.84m141.46 0c5.435 0 9.84-4.406 9.84-9.84a9.84 9.84 0 0 0-9.84-9.84c-5.434 0-9.84 4.405-9.84 9.84s4.406 9.84 9.84 9.84"/><path fill="#adcb53" stroke="#adcb53" stroke-linecap="round" stroke-linejoin="round" stroke-width="1.79" d="M344.3 167.33h-76.97v44.51h76.97z"/><path fill="#fff" d="M304.45 202.16v-2.98c-1.94-.06-3.87-.61-4.98-1.35l.83-2.89c1.2.71 2.92 1.35 4.8 1.35s3.26-.95 3.26-2.43c0-1.38-1.08-2.27-3.35-3.11-3.23-1.17-5.32-2.64-5.32-5.5 0-2.64 1.85-4.67 4.95-5.23v-3.01h2.52v2.86c1.94.06 3.26.52 4.24 1.02l-.83 2.83c-.74-.34-2.09-1.05-4.18-1.05s-2.92 1.11-2.92 2.15c0 1.26 1.11 1.97 3.72 3.01 3.44 1.29 4.98 2.95 4.98 5.69s-1.81 4.92-5.2 5.47v3.17z"/><path stroke="#fff" stroke-miterlimit="10" stroke-width="1.75" d="M305.81 206.24c9.201 0 16.66-7.459 16.66-16.66s-7.459-16.66-16.66-16.66-16.66 7.459-16.66 16.66 7.459 16.66 16.66 16.66Z"/><path stroke="#adcb53" stroke-linecap="round" stroke-linejoin="round" stroke-width="1.79" d="m494.86 132.69-92.39.3v78.37h92.39z"/><path fill="#a8c653" stroke="#a8c653" stroke-miterlimit="10" stroke-width="1.96" d="M494.86 125.63h-92.39v9.92h92.39z"/><path stroke="#adcb53" stroke-linecap="round" stroke-linejoin="round" stroke-width="1.79" d="M437.9 165.72c0 5.95 4.82 10.77 10.77 10.77s10.77-4.82 10.77-10.77c0-4.01-4.9-12.88-8.09-18.21-1.21-2.02-4.14-2.02-5.34 0-3.19 5.34-8.09 14.2-8.09 18.21zm10.76-5.64v21.94"/><path fill="#adcb53" d="M445.98 160.22a2.69 2.69 0 1 1 5.382.002 2.69 2.69 0 0 1-5.382-.002"/><path stroke="#adcb53" stroke-linecap="round" stroke-linejoin="round" stroke-width="1.79" d="m430.13 159.93-10.24 7.55 10.24 7.55m37.07-15.1 10.24 7.55-10.24 7.55m-2.27 19.89h12.19m-40.36 0h22.33m-38.88 0h9.9"/></svg>
